!!!COM: Stadler, Maximilian
!!!CDT: 1748///-1833///
!!!COA: Haydn, Joseph
!!!OTL@@IT: Gioco filarmonico
!!!OTL@EN: Philharmonic Joke
!!!OTA@@IT: o sia maniera facile per comporre un infinito numero de minuetti e trio anche senza sapere il contrapunto
!!!OTA@EN: or the Art of Composing an Infinite Number of Minutes Without the Least Knowledge of Counterpoint
!!!PDT: 1781///
!!!PPR: Artaria
!!!SML: Gesellschaft der Musikfreundes, Vienna
!!!PPR2: Luigi Marescalchi
!!!PPP2: Napoli
!!!PDT2: 1790///
**kern	**kern	**kern
*Icello	*Ivioln	*Ivioln
*>[A,A,B,B,A]	*>[A,A,B,B,A]	*>[A,A,B,B,A]
*>norep[A,B]	*>norep[A,B]	*>norep[A,B]
*>A	*>A	*>A
*k[]	*k[]	*k[]
*M3/4	*M3/4	*M3/4
*MM120	*MM120	*MM120
!!section:  I
!!measure:  A
!!diceroll: 11
=3	=3	=3
4C	4e	4cc
8E	4e	4cc
8G	.	.
4c	4e	4cc
!!section:  I
!!measure:  B
!!diceroll: 9
=84	=84	=84
4r	8.ee	8.gg
.	16ff	16aa
4G	8.dd	8.ff
.	16ee	16gg
4c	4cc	4ee
!!section:  I
!!measure:  C
!!diceroll: 10
=42	=42	=42
4F	4d	8.a
.	.	16cc
4D	4f	8.b
.	.	16dd
4E	4g	8.cc
.	.	16ee
!!section:  I
!!measure:  D
!!diceroll: 7
=167	=167	=167
4E	4c	8gg
.	.	8g
4D	4B	8ff
.	.	8f
4C	4c	4e
!!section:  I
!!measure:  E
!!diceroll: 10
=75	=75	=75
4C	4e	8.ee
.	.	16gg
4E	4g	8.cc
.	.	16ee
4C	4e	8.g
.	.	16ee
!!section:  I
!!measure:  F
!!diceroll: 4
=55	=55	=55
4GG	8r	8r
.	8g	8b
4r	8a	8cc
.	8b	8dd
4r	8cc	8ee
.	8b	8dd
!!section:  I
!!measure:  G
!!diceroll: 10
=62	=62	=62
4GG	12b	12dd
.	12b	12gg
.	12dd	12ff#
4C	12cc	12ee
.	12bb	12dd
.	12a	12cc
4D	12g	12b
.	12a	12cc
.	12ff#	12a
!!section:  I
!!measure:  H
!!diceroll: 11
=33	=33	=33
8r	2.g	2.g
8G	.	.
8D	.	.
8BB	.	.
4GG	.	.
*>B	*>B	*>B
!!section:  II
!!measure:  A
!!diceroll: 7
=138	=138	=138
4r	4r	8g
.	.	8gg
4G	4B-	8ff
.	.	8ee
4G	4B-	8dd
.	.	8cc#
!!section:  II
!!measure:  B
!!diceroll: 3
=39	=39	=39
8D	8f	8aa
8r	8r	8r
8E	8g	8cc#
8r	8r	8r
8F	8a	8dd
!!section:  II
!!measure:  C
!!diceroll: 10
=19	=19	=19
4r	4r	8b
.	.	8dd
4F	4g	8r
.	.	8dd
4F	4g	16cc
.	.	16b
.	.	16a
.	.	16g
!!section:  II
!!measure:  D
!!diceroll: 5
=34	=34	=34
4E	2.g	8gg
.	.	8cc
4F	.	16b
.	.	16cc
.	.	16dd
.	.	16b
4E	.	4cc
!!section:  II
!!measure:  E
!!diceroll: 9
=51	=51	=51
4F	2.c	8.a
.	.	16cc
4A	.	8.ff
.	.	16cc
4F	.	4aa
!!section:  II
!!measure:  F
!!diceroll: 10
=38	=38	=38
4E	4cc	8gg
.	.	8ee
4D	4b	8ff
.	.	8dd
4C	4cc	8ee
.	.	8cc
!!section:  II
!!measure:  G
!!diceroll: 2
=109	=109	=109
4F	12f	12a
.	12a	12ff
.	12ff	12aa
4G	12ee	12gg
.	12dd	12ff
.	12cc	12ee
4G	12f	12dd
.	12e	12cc
.	12d	12b
!!section:  II
!!measure:  H
!!diceroll: 7
=151	=151	=151
4C	2.c	2.cc
8.GG	.	.
16EE	.	.
4CC	.	.
*-	*-	*-
!!!END: 2004/11/01/
